!!!COM: Palestrina, Giovanni Perluigi da
!!!OPR: Missa Ave Maria (1596)
!!!OMD: Credo
!!!OTL: Et in Spiritum
**kern	**kern	**kern	**kern	**kern	**kern
*Ibass	*Itenor	*Itenor	*Icalto	*Icalto	*Icant
!Bassus	!Tenor 2	!Tenor 1	!Altus 2	!Altus 1	!Cantus
*clefF4	*clefGv2	*clefGv2	*clefG2	*clefG2	*clefG2
*k[b-]	*k[b-]	*k[b-]	*k[b-]	*k[b-]	*k[b-]
*F:ion	*F:ion	*F:ion	*F:ion	*F:ion	*F:ion
*M4/2	*M4/2	*M4/2	*M4/2	*M4/2	*M4/2
=165	=165	=165	=165	=165	=165
0r	0r	1.c	0r	1.g	1r
.	.	.	.	.	[1cc
.	.	2c	.	2g	.
=166	=166	=166	=166	=166	=166
0r	0r	2f	0r	2a	2cc]
.	.	2f	.	2a	2cc
.	.	1d	.	1a	2ff
.	.	.	.	.	2ff
=167	=167	=167	=167	=167	=167
0r	0r	1g	0r	1b-	1dd
.	.	1c	.	2g	1ee
.	.	.	.	[2cc	.
=168	=168	=168	=168	=168	=168
0r	0r	2.f	0r	4cc]	2cc
.	.	.	.	4b-	.
.	.	.	.	4a	2.ff
.	.	4e	.	4g	.
.	.	4d	.	2f	.
.	.	4c	.	.	4ee
.	.	4B-	.	[2g	4dd
.	.	4A	.	.	4cc
=169	=169	=169	=169	=169	=169
0r	0r	2G	1r	2g]	4b-
.	.	.	.	.	4a
.	.	2d	.	1f	4a
.	.	.	.	.	8g
.	.	.	.	.	8f
.	.	1c	2r	.	2g
.	.	.	[2c	2e	2g
=170	=170	=170	=170	=170	=170
1.F	0r	0r	2c]	1f	0a
.	.	.	2c	.	.
.	.	.	1f	2r	.
2F	.	.	.	[2f	.
=171	=171	=171	=171	=171	=171
1B-	0r	0r	1d	2f]	1r
.	.	.	.	2f	.
1G	.	.	2.g	1b-	2r
.	.	.	.	.	[2g
.	.	.	4f	.	.
=172	=172	=172	=172	=172	=172
2.c	0r	0r	4e	2g	2g]
.	.	.	4d	.	.
.	.	.	1c	2.cc	2g
4B-	.	.	.	.	.
4A	.	.	.	.	[1a
4G	.	.	.	4b-	.
4F	.	.	[2d	4a	.
4E	.	.	.	4g	.
=173	=173	=173	=173	=173	=173
2D	0r	1r	2d]	4f	2a]
.	.	.	.	4e	.
2A	.	.	2.c	4d	2f
.	.	.	.	4c	.
1G	.	2r	.	1d	1g
.	.	.	8B	.	.
.	.	.	8A	.	.
.	.	[2G	2B	.	.
=174	=174	=174	=174	=174	=174
1C	0r	2G]	2c	1e-	2.g
.	.	2c	2g	.	.
.	.	.	.	.	4a
1G	.	1B-	2g	[1d	2.b-
.	.	.	[2b-	.	.
.	.	.	.	.	4cc
=175	=175	=175	=175	=175	=175
2G	1r	2.G	4b-]	0d]	0dd
.	.	.	4a	.	.
2.B-	.	.	4g	.	.
.	.	4A	4f	.	.
.	[1B-	4B-	2g	.	.
4A	.	4c	.	.	.
4G	.	[2d	[2f	.	.
4F	.	.	.	.	.
=176	=176	=176	=176	=176	=176
1G	1B-]	2d]	2f]	1r	0r
.	.	4c	2e	.	.
.	.	4B-	.	.	.
1F	[1A	[1A	1f	2r	.
.	.	.	.	2a	.
=177	=177	=177	=177	=177	=177
0r	1A_	1A]	2r	2a	1ee
.	.	.	1a	2.cc	.
.	1A_	1r	.	.	2ee
.	.	.	.	4b-	.
.	.	.	2a	4a	2ee
.	.	.	.	4g	.
=178	=178	=178	=178	=178	=178
0r	1A]	0r	2.cc	2a	2ff
.	.	.	.	2e	1ee
.	.	.	4b-	.	.
.	[1A	.	4a	1f	.
.	.	.	4g	.	.
.	.	.	2a	.	[2dd
=179	=179	=179	=179	=179	=179
0r	1A]	1r	2a	1e	4dd]
.	.	.	.	.	8cc#
.	.	.	.	.	8b
.	.	.	2a	.	2cc#
.	1B-	2r	2f	1d	[1dd
.	.	2d	2g	.	.
=180	=180	=180	=180	=180	=180
0D	[0F	2d	1a	2r	0dd]
.	.	2.f	.	2d	.
.	.	.	2r	2d	.
.	.	4e	.	.	.
.	.	4d	2a	[2f	.
.	.	4c	.	.	.
=181	=181	=181	=181	=181	=181
1D	1F]	1d	2a	4f]	2r
.	.	.	.	4g	.
.	.	.	2.f	2a	1a
[1F	[1A	[1c	.	4f	.
.	.	.	4e	4g	.
.	.	.	4f	4a	2a
.	.	.	4g	4b-	.
=182	=182	=182	=182	=182	=182
1F]	1A]	0c]	2a	1.cc	1ff
.	.	.	2f	.	.
1C	1G	.	1g	.	2ee
.	.	.	.	2g	2cc
=183	=183	=183	=183	=183	=183
2G	1G	0r	2g	2.b-	0dd
2.B-	.	.	2g	.	.
.	.	.	.	4a	.
.	[1B-	.	1d	2g	.
4A	.	.	.	.	.
4G	.	.	.	[2f	.
4F	.	.	.	.	.
=184	=184	=184	=184	=184	=184
2G	1B-]	1r	1r	2f]	1b-
2G	.	.	.	2e	.
1F	[1c	2r	2r	1f	1a
.	.	[2f	[2a	.	.
=185	=185	=185	=185	=185	=185
0r	0c]	2f]	2a]	0r	1.cc
.	.	2e	2g	.	.
.	.	2c	2e	.	.
.	.	2e	2g	.	2cc
=186	=186	=186	=186	=186	=186
0r	0r	1d	1f	2r	2b-
.	.	.	.	1f	2a
.	.	[1c	[1g	.	[1cc
.	.	.	.	2e	.
=187	=187	=187	=187	=187	=187
2r	0r	1c]	1g]	2c	1cc]
2c	.	.	.	2e	.
2c	.	1G	1g	1d	[1dd
2B-	.	.	.	.	.
=188	=188	=188	=188	=188	=188
2G	0r	2.B-	2g	1d	1dd]
2B-	.	.	2g	.	.
.	.	4B-	.	.	.
1A	.	2c	2f	1r	2r
.	.	2c	2e	.	2cc
=189	=189	=189	=189	=189	=189
0G	0r	2.d	0g	2r	2cc
.	.	.	.	2d	2b-
.	.	4c	.	.	.
.	.	4B-	.	2d	2g
.	.	4A	.	.	.
.	.	2G	.	2g	2b-
=190	=190	=190	=190	=190	=190
1r	0r	2A	1c	2e	1a
.	.	2F	.	1f	.
2r	.	1c	1r	.	[1g
[2c	.	.	.	4e	.
.	.	.	.	4d	.
=191	=191	=191	=191	=191	=191
2c]	0r	1r	0r	1e	1g]
2c	.	.	.	.	.
2B-	.	[1f	.	1d	1r
2B-	.	.	.	.	.
=192	=192	=192	=192	=192	=192
2A	0r	2f]	1.cc	1c	0r
4F	.	2f	.	.	.
4G	.	.	.	.	.
4A	.	2e	.	2r	.
4B-	.	.	.	.	.
2c	.	2e	2cc	[2g	.
=193	=193	=193	=193	=193	=193
1G	0r	2d	1b-	2g]	1r
.	.	4B-	.	2g	.
.	.	4c	.	.	.
1B-	.	4d	1b-	2f	[1ff
.	.	4e	.	.	.
.	.	[2f	.	2d	.
=194	=194	=194	=194	=194	=194
1F	0r	2f]	1a	2f	2ff]
.	.	2F	.	1cc	2ff
1r	.	1c	[1g	.	2ee
.	.	.	.	2cc	2ee
=195	=195	=195	=195	=195	=195
0r	0r	2.G	2g]	1.b-	2dd
.	.	.	2g	.	4b-
.	.	4A	.	.	4cc
.	.	4B-	1f	.	4dd
.	.	4c	.	.	4ee
.	.	[2d	.	2a	[2ff
=196	=196	=196	=196	=196	=196
0r	1r	4d]	1f	2a	4ff]
.	.	8c	.	.	8ee
.	.	8B-	.	.	8dd
.	.	2A	.	2a	2cc
.	[1f	2B-	1r	2d	2dd
.	.	2A	.	[2a	[2cc
=197	=197	=197	=197	=197	=197
0r	1f]	1d	1r	2a]	4cc]
.	.	.	.	.	8b-
.	.	.	.	.	8a
.	.	.	.	4g	2b
.	.	.	.	4f	.
.	[1e	1c	2r	[1g	[1cc
.	.	.	2c	.	.
=198	=198	=198	=198	=198	=198
1C	1e_	0r	2c	1g]	0cc]
.	.	.	2c	.	.
2C	1e_	.	2g	2r	.
2C	.	.	[2c	2g	.
=199	=199	=199	=199	=199	=199
1c	1e]	0r	4c]	2g	2r
.	.	.	4d	.	.
.	.	.	4e	2g	2cc
.	.	.	4f	.	.
2c	[1e	.	2g	1cc	2cc
2A	.	.	2a	.	2cc
=200	=200	=200	=200	=200	=200
2G	1e]	0r	2b-	2b-	1gg
2G	.	.	2b-	2g	.
1F	1f	.	2a	2.a	2cc
.	.	.	4g	.	2ff
.	.	.	4f	4b-	.
=201	=201	=201	=201	=201	=201
0r	[0c	1r	1g	1cc	2ff
.	.	.	.	.	2ee
.	.	1F	1f	[1a	2.ff
.	.	.	.	.	8ee
.	.	.	.	.	8dd
=202	=202	=202	=202	=202	=202
1r	1c]	2F	2r	1a]	0cc
.	.	2F	2c	.	.
1C	[1e	[1c	2c	1g	.
.	.	.	2c	.	.
=203	=203	=203	=203	=203	=203
2C	1e]	2c]	2g	1g	2r
2C	.	2c	2c	.	2g
[1G	1d	2B-	4d	2.b-	2g
.	.	.	4c	.	.
.	.	2G	4B-	.	2g
.	.	.	4A	4b-	.
=204	=204	=204	=204	=204	=204
2G]	1d	2B-	1G	2b-	2dd
2G	.	2B-	.	2b-	2g
2F	[1f	2c	1r	2a	2a
2D	.	[2f	.	2a	[2dd
=205	=205	=205	=205	=205	=205
2F	1f]	4f]	0r	1a	2dd]
.	.	4e	.	.	.
2A	.	2c	.	.	1cc
1G	[1g	1d	.	1r	.
.	.	.	.	.	2b
=206	=206	=206	=206	=206	=206
2r	0g]	2.e-	1c	1r	1cc
2c	.	.	.	.	.
.	.	4d	.	.	.
2c	.	2c	2e-	2r	1r
2B-	.	2G	2d	2g	.
=207	=207	=207	=207	=207	=207
1.c	0r	1A	1c	2g	0r
.	.	.	.	2f	.
.	.	1G	1d	1g	.
2B-	.	.	.	.	.
=208	=208	=208	=208	=208	=208
2.A	0r	1r	1c	2f	0r
.	.	.	.	2e	.
4G	.	.	.	.	.
2F	.	2r	1c	2a	.
2E	.	[2c	.	2g	.
=209	=209	=209	=209	=209	=209
1D	0r	2c]	1d	1f	2r
.	.	2B	.	.	1ff
1C	.	2c	2g	2r	.
.	.	2c	[2a	[2cc	2ee
=210	=210	=210	=210	=210	=210
0r	0r	1d	2a]	2cc]	1.ff
.	.	.	2f	2b	.
.	.	1c	2g	2cc	.
.	.	.	2g	2cc	2ee
=211	=211	=211	=211	=211	=211
0r	0r	2G	2g	2b-	2dd
.	.	2A	2c	2a	2cc
.	.	1B-	1r	2g	2b-
.	.	.	.	[2f	2a
=212	=212	=212	=212	=212	=212
1r	0r	1c	1r	2f]	1g
.	.	.	.	2e	.
[1F	.	2r	[1a	2f	2f
.	.	[2A	.	[2f	[2cc
=213	=213	=213	=213	=213	=213
2F]	0r	2A]	2a]	2f]	2cc]
2F	.	2A	2a	2f	2cc
1F	.	1A	1cc	1a	1ff
=214	=214	=214	=214	=214	=214
1C	0r	1c	1cc	1g	1ee
2.G	.	2.d	2.b-	2.g	2.dd
4G	.	4d	4b-	4g	4dd
=215	=215	=215	=215	=215	=215
2G	0r	2B-	2g	2d	2dd
2G	.	2B-	2g	2d	2dd
2C	.	2c	2g	2e-	2cc
2C	.	2c	2g	2e-	2cc
=216	=216	=216	=216	=216	=216
2D	0r	2F	2f	2d	2a
2BB-	.	1B-	2f	2d	2b-
1F	.	.	1f	1c	1cc
.	.	2A	.	.	.
=217	=217	=217	=217	=217	=217
0BB-	1r	4B-	0d	1B-	2dd
.	.	4c	.	.	.
.	.	4d	.	.	2b-
.	.	4e	.	.	.
.	[1B-	[1f	.	2r	1dd
.	.	.	.	2B-	.
=218	=218	=218	=218	=218	=218
2r	1B-]	1f]	2r	1d	1.ff
2BB-	.	.	1f	.	.
1D	[1A	2r	.	[1f	.
.	.	2F	[2a	.	2ff
=219	=219	=219	=219	=219	=219
1.F	1A_	1A	2a]	2f]	1ff
.	.	.	1cc	2f	.
.	1A_	2c	.	1a	2cc
2F	.	2A	2c	.	[2ff
=220	=220	=220	=220	=220	=220
2D	1A]	2f	2d	1a	4ff]
.	.	.	.	.	4ee
2D	.	2f	2d	.	1dd
2A	[1A	2e	2e	2.a	.
2A	.	2e	2A	.	2cc#
.	.	.	.	4a	.
=221	=221	=221	=221	=221	=221
1D	1A]	2d	1a	[0f	1dd
.	.	1f	.	.	.
[1BB-	1B-	.	[1d	.	[1ff
.	.	2e	.	.	.
=222	=222	=222	=222	=222	=222
2BB-]	[0F	2d	2d]	0f]	2ff]
2C	.	4c	2e	.	2ee
.	.	4B-	.	.	.
2D	.	1A	2f	.	1dd
2E	.	.	2g	.	.
=223	=223	=223	=223	=223	=223
[0F	1F]	1.A	0a	1.f	1cc
.	[1A	.	.	.	[1cc
.	.	2B-	.	2g	.
=224	=224	=224	=224	=224	=224
1F]	1A]	1.c	1f	2a	2cc]
.	.	.	.	2b-	2dd
2.C	1G	.	[1g	1cc	[1ee-
.	.	4B-	.	.	.
4D	.	4A	.	.	.
=225	=225	=225	=225	=225	=225
1E-	1G	4G	1g]	1.b-	1ee-]
.	.	4A	.	.	.
.	.	4B-	.	.	.
.	.	4c	.	.	.
[1BB-	[1B-	[1d	[1f	.	[1dd
.	.	.	.	4a	.
.	.	.	.	4g	.
=226	=226	=226	=226	=226	=226
1BB-]	1B-]	2d]	2f]	0f	1dd]
.	.	4c	2g	.	.
.	.	4B-	.	.	.
1F	[1c	1A	2a	.	[1cc
.	.	.	[2f	.	.
=227	=227	=227	=227	=227	=227
0C	0c]	0G	2f]	0g	0cc]
.	.	.	4e	.	.
.	.	.	4d	.	.
.	.	.	1e	.	.
=228	=228	=228	=228	=228	=228
0F	0c	0F	0f	0a	0cc
==	==	==	==	==	==
*-	*-	*-	*-	*-	*-
!!!CDT: 1525/^1526/-1594/2/2
!!!OCY: Italia
!!!AGN: Mass (Tenor)
!!!AST: renaissance, vocal
!!!ASW: Motet 1563 (Palestrina)
!!!PWK: Masses, Book 6
!!!RNB: Cadence finals: C
!!!YOR: Le Opere Complete, v. 21, p. 142
!!!YOO: Rome, Italy: Fratelli Scalera
!!!END: 1992//
!!!EED: John Miller
!!!YEC: Copyright 2000, John Miller
!!!YEN: United States of America
!!!YEM: Rights to all derivative electronic formats reserved.
!!!YEM: Refer to licensing agreement for further details.
!!!YEM: This file must be accompanied by the licensing agreement.
!!!YEM: A copy of the licensing agreement may be found at http://www.music-cog.ohio-state.edu/HumdrumDatabases/Palestrina/license.txt
!!!EMD: converted to Humdrum by Bret Aarden
